X:1
T:Black is the Colour
M:3/2
L:1/4
K:D
 A A D/2D/2| F3/2 F/2 A F D C| D3 A A =c| d2 =c2(2e15.9999925000037/23.999988000006e15.9999925000037/23.999988000006d15.9999925000037/23.999988000006 c15.9999925000037/23.999988000006|\
 A3 A A =c| d2 =c c| e d| A2 A2 A D| F2- A F D C| D3||
